X: 25
T: Out On The Ocean
Z: NickMM
S: https://thesession.org/tunes/108#setting47167
R: jig
M: 6/8
L: 1/8
K: Fmaj
C2A AGF|AcA GAG|FDC F2G|AFA GFD|
C2A AGF|AcA GAG|FDC F2G|AFE F2D|
C2A AGF|AcA GAG|FDC F2G|AFA GFD|
C2A AGF|AcA GAG|FDC F2G|AFE FAc||
d2d dcA|d2d dcA|c2c cAG|cdc cAG|
F2G A2c|dfd cAG|FDC F2G|AFE FAc|
d2d dcA|d2d dcA|cdc cde|fed cAG|
F2G A2c|dfd cAG|FDC F2G|AFE F3||

